src/16/clipboard-16.svg

<svg baseProfile="tiny" xmlns="http://www.w3.org/2000/svg" viewBox="0 0 16 16"><path d="M11.5 14h-7a.5.5 0 0 1-.5-.5v-9a.5.5 0 0 1 .5-.5H5v9h6V4h.5a.5.5 0 0 1 .5.5v9a.5.5 0 0 1-.5.5z"/><path d="M13.5 16h-11a.5.5 0 0 1-.5-.5v-12a.5.5 0 0 1 .5-.5H6v1H3v11h10V4h-3V3h3.5a.5.5 0 0 1 .5.5v12a.5.5 0 0 1-.5.5z"/><path d="M10.5 5h-5a.5.5 0 0 1-.5-.5v-2a.5.5 0 0 1 .5-.5h.42C6.161 1.034 7.101.588 7.982.588c1.017 0 1.729.54 1.921 1.412h.597a.5.5 0 0 1 .5.5v2a.5.5 0 0 1-.5.5zM6 4h4V3h-.544a.5.5 0 0 1-.5-.5c0-.754-.529-.912-.974-.912-.188 0-1.122.044-1.122.912a.5.5 0 0 1-.5.5H6v1z"/></svg>

<?xml version="1.0" encoding="iso-8859-1"?>
<!-- Generator: Adobe Illustrator 19.1.0, SVG Export Plug-In . SVG Version: 6.00 Build 0)  -->
<!DOCTYPE svg PUBLIC "-//W3C//DTD SVG 1.1 Tiny//EN" "http://www.w3.org/Graphics/SVG/1.1/DTD/svg11-tiny.dtd">
<svg version="1.1" baseProfile="tiny" xmlns="http://www.w3.org/2000/svg" xmlns:xlink="http://www.w3.org/1999/xlink" x="0px"
	 y="0px" viewBox="0 0 16 16" xml:space="preserve">
<g id="Layer_1">
	<path d="M11.5,14h-7C4.224,14,4,13.776,4,13.5v-9C4,4.224,4.224,4,4.5,4H5v9h6V4h0.5C11.776,4,12,4.224,12,4.5v9
		C12,13.776,11.776,14,11.5,14z"/>
	<path d="M13.5,16h-11C2.224,16,2,15.776,2,15.5v-12C2,3.224,2.224,3,2.5,3H6v1H3v11h10V4h-3V3h3.5C13.776,3,14,3.224,14,3.5v12
		C14,15.776,13.776,16,13.5,16z"/>
	<path d="M10.5,5h-5C5.224,5,5,4.776,5,4.5v-2C5,2.224,5.224,2,5.5,2h0.42c0.241-0.966,1.181-1.412,2.062-1.412
		c1.017,0,1.729,0.54,1.921,1.412H10.5C10.776,2,11,2.224,11,2.5v2C11,4.776,10.776,5,10.5,5z M6,4h4V3H9.456
		c-0.276,0-0.5-0.224-0.5-0.5c0-0.754-0.529-0.912-0.974-0.912c-0.188,0-1.122,0.044-1.122,0.912c0,0.276-0.224,0.5-0.5,0.5H6V4z"/>
</g>
<g id="Layer_2">
</g>
<g id="Layer_3">
</g>
</svg>
